client/src/assets/Filter.svg

<svg width="30" height="30" viewBox="0 0 30 30" fill="none" xmlns="http://www.w3.org/2000/svg">
<path fill-rule="evenodd" clip-rule="evenodd" d="M15 30C23.2843 30 30 23.2843 30 15C30 6.71573 23.2843 0 15 0C6.71573 0 0 6.71573 0 15C0 23.2843 6.71573 30 15 30Z" fill="#7C79FF"/>
<path fill-rule="evenodd" clip-rule="evenodd" d="M14.9273 10.8H22.2727C22.6744 10.8 23 11.1134 23 11.5C23 11.8866 22.6744 12.2 22.2727 12.2H14.9273C14.5539 13.9604 12.8562 15.1628 10.9989 14.9822C9.14158 14.8016 7.72803 13.2967 7.72803 11.5C7.72803 9.70318 9.14158 8.19827 10.9989 8.01768C12.8562 7.83709 14.5539 9.03948 14.9273 10.8ZM9.34791 12.3036C9.68561 13.0883 10.4812 13.6 11.3636 13.6C11.9423 13.6 12.4973 13.3787 12.9064 12.9849C13.3156 12.5911 13.5455 12.0569 13.5455 11.5C13.5455 10.6506 13.0139 9.88485 12.1986 9.55981C11.3833 9.23477 10.4449 9.41444 9.82087 10.015C9.19687 10.6156 9.0102 11.5189 9.34791 12.3036Z" fill="white"/>
<path fill-rule="evenodd" clip-rule="evenodd" d="M15.0727 17.8C15.4207 16.1715 16.909 15.0021 18.6364 15C20.5499 15.0004 22.1357 16.4281 22.2638 18.2657C22.3919 20.1034 21.0184 21.7222 19.1221 21.9685C17.2257 22.2149 15.4554 21.0046 15.0727 19.2H7.72727C7.32561 19.2 7 18.8866 7 18.5C7 18.1134 7.32561 17.8 7.72727 17.8H15.0727ZM16.4545 18.5C16.4545 19.6598 17.4314 20.6 18.6364 20.6C19.8413 20.6 20.8182 19.6598 20.8182 18.5C20.8182 17.3402 19.8413 16.4 18.6364 16.4C17.4314 16.4 16.4545 17.3402 16.4545 18.5Z" fill="white"/>
</svg>

<svg width="30" height="30" fill="none" xmlns="http://www.w3.org/2000/svg"><path fill-rule="evenodd" clip-rule="evenodd" d="M15 30c8.284 0 15-6.716 15-15 0-8.284-6.716-15-15-15C6.716 0 0 6.716 0 15c0 8.284 6.716 15 15 15z" fill="#7C79FF"/><path fill-rule="evenodd" clip-rule="evenodd" d="M14.927 10.8h7.346c.401 0 .727.313.727.7 0 .387-.326.7-.727.7h-7.346c-.373 1.76-2.07 2.963-3.928 2.782-1.857-.18-3.271-1.685-3.271-3.482 0-1.797 1.414-3.302 3.27-3.482 1.858-.18 3.556 1.021 3.93 2.782zm-5.58 1.504c.339.784 1.134 1.296 2.017 1.296.578 0 1.133-.221 1.542-.615.41-.394.64-.928.64-1.485 0-.85-.532-1.615-1.347-1.94a2.244 2.244 0 00-2.378.455c-.624.6-.81 1.504-.473 2.289zM15.073 17.8c.348-1.628 1.836-2.798 3.563-2.8 1.914 0 3.5 1.428 3.628 3.266.128 1.837-1.246 3.456-3.142 3.703-1.896.246-3.667-.964-4.05-2.769H7.728A.714.714 0 017 18.5c0-.387.326-.7.727-.7h7.346zm1.381.7c0 1.16.977 2.1 2.182 2.1s2.182-.94 2.182-2.1c0-1.16-.977-2.1-2.182-2.1s-2.181.94-2.181 2.1z" fill="#fff"/></svg>
